X: 43
T: The Gravel Walks
M: 4/4
L: 1/8
R: reel
K: Ador
"Am"A2 eA (3cBA eA|A2 eA "G"BAGB|"Am"A2 eA (3Bcd ef|"G"gedc BAGB:|
"Am"A2 aA "Am7"gAfA|"Am"A2 eA "G"BAGB|"Am"A2 aA "Am7"gAfA|"G"gedc BAGB|
"Am"A2 aA "Am7"gAfA|"Am"A2 eA "G"BAGB|"Am"ABcd efga|"G"gedc BAGB|
|:"Am"(3cBA BG A2 AB|cAAd "G"BAGB|"Am"(3cBA BG ABcd|"C"efge "G"dBGB:|
|:"C"c2 gc acgc|c2 gc "G"BAGB|"C"c2 gc "Am"acga|"G"gedc BAGB|
"C"c2 gc acgc|c2 gc "G"BAGB|"Am"ABcd efga|"G"gedc BAGB:|"Am(Fine)"A4||


